img/icons/mini_ico_rev.svg

<?xml version="1.0" encoding="UTF-8"?>
<svg xmlns="http://www.w3.org/2000/svg" width="16" height="16">
  <g font-size="22.211" letter-spacing="0" word-spacing="0" fill="#2c6fad" font-family="Sans">
    <path style="line-height:125%;-inkscape-font-specification:Sans" d="M7 1v4h-4v2h4v4h2v-4h4v-2h-4v-4z"/>
    <path style="line-height:125%;-inkscape-font-specification:Sans" d="M4 13h8v2h-8v-2"/>
  </g>
</svg>

<?xml version="1.0" encoding="UTF-8" standalone="no"?>
<!-- Created with Inkscape (http://www.inkscape.org/) -->

<svg
   xmlns:dc="http://purl.org/dc/elements/1.1/"
   xmlns:cc="http://creativecommons.org/ns#"
   xmlns:rdf="http://www.w3.org/1999/02/22-rdf-syntax-ns#"
   xmlns:svg="http://www.w3.org/2000/svg"
   xmlns="http://www.w3.org/2000/svg"
   xmlns:sodipodi="http://sodipodi.sourceforge.net/DTD/sodipodi-0.dtd"
   xmlns:inkscape="http://www.inkscape.org/namespaces/inkscape"
   width="16px"
   height="16px"
   id="svg2985"
   version="1.1"
   inkscape:version="0.48.4 r9939"
   inkscape:export-filename="/media/X/bitcoin.org/current/img/mini_ico_rev.png"
   inkscape:export-xdpi="90"
   inkscape:export-ydpi="90"
   sodipodi:docname="mini_ico_rev.svg">
  <defs
     id="defs2987" />
  <sodipodi:namedview
     id="base"
     pagecolor="#ffffff"
     bordercolor="#666666"
     borderopacity="1.0"
     inkscape:pageopacity="0.0"
     inkscape:pageshadow="2"
     inkscape:zoom="32"
     inkscape:cx="4.1148252"
     inkscape:cy="9.5177827"
     inkscape:current-layer="layer1"
     showgrid="true"
     inkscape:grid-bbox="true"
     inkscape:document-units="px"
     inkscape:window-width="1615"
     inkscape:window-height="1026"
     inkscape:window-x="65"
     inkscape:window-y="24"
     inkscape:window-maximized="1"
     showguides="true"
     inkscape:guide-bbox="true" />
  <metadata
     id="metadata2990">
    <rdf:RDF>
      <cc:Work
         rdf:about="">
        <dc:format>image/svg+xml</dc:format>
        <dc:type
           rdf:resource="http://purl.org/dc/dcmitype/StillImage" />
        <dc:title></dc:title>
      </cc:Work>
    </rdf:RDF>
  </metadata>
  <g
     id="layer1"
     inkscape:label="Layer 1"
     inkscape:groupmode="layer">
    <path
       style="font-size:22.21102905px;font-style:normal;font-weight:normal;line-height:125%;letter-spacing:0px;word-spacing:0px;fill:#2c6fad;fill-opacity:1;stroke:none;font-family:Sans;-inkscape-font-specification:Sans"
       d="M 7,1 7,5 3,5 3,7 7,7 7,11 9,11 9,7 13,7 13,5 9,5 9,1 z"
       id="path3776"
       inkscape:connector-curvature="0"
       sodipodi:nodetypes="ccccccccccccc" />
    <path
       inkscape:connector-curvature="0"
       id="path3776-2"
       style="font-size:22.21102905px;font-style:normal;font-weight:normal;line-height:125%;letter-spacing:0px;word-spacing:0px;fill:#2c6fad;fill-opacity:1;stroke:none;font-family:Sans;-inkscape-font-specification:Sans"
       d="M 4.0000001,13 12,13 l 0,2 -8,0 0,-2"
       sodipodi:nodetypes="ccccc" />
  </g>
</svg>
